material/.icons/material/laptop-off.svg

<svg xmlns="http://www.w3.org/2000/svg" viewBox="0 0 24 24"><path d="M1 4.27L2.28 3 20 20.72 18.73 22l-2-2H0v-2h4a2 2 0 01-2-2V6c0-.22.04-.43.1-.63L1 4.27M4 16h8.73L4 7.27V16m16 0V6H7.82l-2-2H20a2 2 0 012 2v10a2 2 0 01-2 2h4v2h-2.18l-4-4H20z"/></svg>

<?xml version="1.0" encoding="UTF-8"?><!DOCTYPE svg PUBLIC "-//W3C//DTD SVG 1.1//EN" "http://www.w3.org/Graphics/SVG/1.1/DTD/svg11.dtd"><svg xmlns="http://www.w3.org/2000/svg" xmlns:xlink="http://www.w3.org/1999/xlink" version="1.1" id="mdi-laptop-off" width="24" height="24" viewBox="0 0 24 24"><path d="M1,4.27L2.28,3L20,20.72L18.73,22L16.73,20H0V18H4C2.89,18 2,17.1 2,16V6C2,5.78 2.04,5.57 2.1,5.37L1,4.27M4,16H12.73L4,7.27V16M20,16V6H7.82L5.82,4H20A2,2 0 0,1 22,6V16A2,2 0 0,1 20,18H24V20H21.82L17.82,16H20Z" /></svg>
